X: 1
T: The Clare Jig
N: RJ J-79
M: 6/8
K: G
|:\
"G"G3 GAB | "C"AGE "D"GED | "G"GFG "Am"AGE | "C"GED "D"DEF |\
"G"~G3 GAB | "C"AGE "G/B"GAB | "Am"cBA "C"BGE |[1 "D"DED DEF :|[2 "D"DED D3 |]
|:\
"C"cBA "G"BAG | "D"ABA AGE | "C"cBA "G"BGE | "D"DED D3 |\
"C"cBA "G"BAG | "Am"ABA ABc | "D"dcA "C"GEA |[1 "D"DED D3 :|[2 "D"HD2B cAF :|
% ["Fin" "D"D6 |]
%%text Alternate chords for the A part: G - D - G - D - G - D - C - D -
% text See set 78 for alternate chords for Clare Jig


